components/AnnouncementBar/logos/color-ibm.svg

<svg width="266" height="80" viewBox="0 0 266 80" fill="none" xmlns="http://www.w3.org/2000/svg">
<path d="M34 0V5.4733H72.9297V0H34ZM78.4456 0V5.4733H133.922C133.922 5.4733 128.256 0 120.75 0H78.4456ZM144.805 0V5.4733H178.368L176.375 0H144.805ZM202.431 0L200.437 5.4733H233.696V0H202.431ZM34 10.6444V16.1171H72.9297V10.6444H34ZM78.4456 10.6514V16.1171H140.36C140.36 16.1171 139.637 11.9045 138.375 10.6514H78.4456ZM144.805 10.6514V16.1171H182.047L180.204 10.6514H144.805ZM198.447 10.6514L196.603 16.1171H233.697V10.6514H198.447ZM45.188 21.2883V26.7697H62.0474V21.2883H45.188ZM89.6329 21.2883V26.7697H106.492V21.2883H89.6329ZM122.891 21.2883V26.7697H139.751C139.751 26.7697 140.821 23.8744 140.821 21.2883H122.891ZM155.993 21.2883V26.7697H185.884L183.892 21.2883H155.993ZM194.773 21.2883L192.773 26.7697H222.813V21.2883H194.773ZM45.188 31.9409V37.4147H62.0474V31.9409H45.188ZM89.6329 31.9409V37.4147H132.696C132.696 37.4147 136.298 34.6053 137.447 31.9409H89.6329ZM155.993 31.9409V37.4147H172.853V34.3669L173.923 37.4147H204.806L205.954 34.3669V37.4147H222.814V31.9409H191.166L189.487 36.5778L187.799 31.9409H155.993ZM45.188 42.5847V48.0598H62.0474V42.5847H45.188ZM89.6329 42.5847V48.0598H137.447C136.297 45.4029 132.696 42.5847 132.696 42.5847H89.6329ZM155.993 42.5847V48.0598H172.853V42.5847H155.993ZM175.915 42.5847L177.954 48.0598H201.109L203.047 42.5847H175.915ZM205.954 42.5847V48.0598H222.814V42.5847H205.954ZM45.188 53.2303V58.7042H62.0474V53.2303H45.188ZM89.6329 53.2303V58.7042H106.492V53.2303H89.6329ZM122.891 53.2303V58.7042H140.821C140.821 56.1209 139.751 53.2303 139.751 53.2303H122.891ZM155.993 53.2303V58.7042H172.853V53.2303H155.993ZM179.742 53.2303L181.719 58.7042H197.244L199.236 53.2303H179.742ZM205.954 53.2303V58.7042H222.814V53.2303H205.954ZM34.3045 63.8747V69.355H73.2347V63.8747H34.3045ZM78.4456 63.8747V69.355H138.376C139.637 68.1008 140.361 63.8747 140.361 63.8747H78.4456ZM145.11 63.8747V69.355H172.853V63.8747H145.11ZM183.579 63.8747L185.611 69.355H193.509L195.416 63.8747H183.579ZM205.954 63.8747V69.355H234V63.8747H205.954ZM34.3045 74.5261V80H73.2347V74.5261H34.3045ZM78.4456 74.5261V79.9912H120.75C128.256 79.9912 133.922 74.5261 133.922 74.5261H78.4456ZM145.11 74.5261V80H172.853V74.5261H145.11ZM187.431 74.5261L189.384 79.983L189.72 79.9912L191.705 74.5261H187.431ZM205.954 74.5261V80H234V74.5261H205.954Z" fill="black"/>
</svg>

<svg xmlns="http://www.w3.org/2000/svg" width="266" height="80" fill="none" viewBox="0 0 266 80">
  <path fill="#000" d="M34 0v5.473h38.93V0H34Zm44.446 0v5.473h55.476S128.256 0 120.75 0H78.446Zm66.359 0v5.473h33.563L176.375 0h-31.57Zm57.626 0-1.994 5.473h33.259V0h-31.265ZM34 10.644v5.473h38.93v-5.473H34Zm44.446.007v5.466h61.914s-.723-4.213-1.985-5.466h-59.93Zm66.359 0v5.466h37.242l-1.843-5.466h-35.399Zm53.642 0-1.844 5.466h37.094v-5.466h-35.25ZM45.188 21.288v5.482h16.86v-5.482h-16.86Zm44.445 0v5.482h16.859v-5.482h-16.86Zm33.258 0v5.482h16.86s1.07-2.896 1.07-5.482h-17.93Zm33.102 0v5.482h29.891l-1.992-5.482h-27.899Zm38.78 0-2 5.482h30.04v-5.482h-28.04ZM45.188 31.941v5.474h16.86V31.94h-16.86Zm44.445 0v5.474h43.063s3.602-2.81 4.751-5.474H89.633Zm66.36 0v5.474h16.86v-3.048l1.07 3.048h30.883l1.148-3.048v3.048h16.86V31.94h-31.648l-1.679 4.637-1.688-4.637h-31.806ZM45.188 42.585v5.475h16.86v-5.475h-16.86Zm44.445 0v5.475h47.814c-1.15-2.657-4.751-5.475-4.751-5.475H89.633Zm66.36 0v5.475h16.86v-5.475h-16.86Zm19.922 0 2.039 5.475h23.155l1.938-5.475h-27.132Zm30.039 0v5.475h16.86v-5.475h-16.86ZM45.188 53.23v5.474h16.86V53.23h-16.86Zm44.445 0v5.474h16.859V53.23h-16.86Zm33.258 0v5.474h17.93c0-2.583-1.07-5.474-1.07-5.474h-16.86Zm33.102 0v5.474h16.86V53.23h-16.86Zm23.749 0 1.977 5.474h15.525l1.992-5.474h-19.494Zm26.212 0v5.474h16.86V53.23h-16.86ZM34.304 63.875v5.48h38.93v-5.48h-38.93Zm44.142 0v5.48h59.93c1.261-1.254 1.985-5.48 1.985-5.48H78.446Zm66.664 0v5.48h27.743v-5.48H145.11Zm38.469 0 2.032 5.48h7.898l1.907-5.48h-11.837Zm22.375 0v5.48H234v-5.48h-28.046ZM34.304 74.526V80h38.93v-5.474h-38.93Zm44.142 0v5.465h42.304c7.506 0 13.172-5.465 13.172-5.465H78.446Zm66.664 0V80h27.743v-5.474H145.11Zm42.321 0 1.953 5.457.336.008 1.985-5.465h-4.274Zm18.523 0V80H234v-5.474h-28.046Z"/>
</svg>
